packages/core/src/svgs/tokens/mono/MOOV.svg

<svg width="24" height="24" viewBox="0 0 24 24" fill="none" xmlns="http://www.w3.org/2000/svg">
<path d="M9.50027 2.09999L20.2439 8.4328C20.466 8.56612 20.6104 8.81054 20.6104 9.07718V14.9434C20.6104 15.21 20.4716 15.46 20.2439 15.5878L9.50584 21.8984C9.39411 21.9649 9.26644 22 9.13643 22C9.00629 22 8.87875 21.9649 8.76702 21.8984L3.75073 18.8763C3.52852 18.7431 3.38965 18.4986 3.38965 18.232V5.67747C3.38965 5.41082 3.52852 5.1664 3.75629 5.03307L8.77259 2.09999C8.99476 1.96667 9.27253 1.96667 9.50027 2.09999ZM6.1672 4.31092V19.6596C6.1672 19.8819 6.41162 20.0263 6.60605 19.9152L19.9105 12.2159C19.9543 12.1897 19.9905 12.1527 20.0156 12.1084C20.0407 12.0641 20.054 12.014 20.054 11.9631C20.054 11.9122 20.0407 11.862 20.0156 11.8178C19.9905 11.7735 19.9543 11.7364 19.9105 11.7103L6.60049 4.05539C6.55619 4.02979 6.50587 4.01642 6.45471 4.01665C6.40353 4.01689 6.35334 4.03071 6.30927 4.05669C6.26519 4.0827 6.22882 4.11992 6.20385 4.16459C6.17889 4.20926 6.16624 4.25976 6.1672 4.31092Z" fill="white"/>
<path d="M8.94483 14.0267V9.97142C8.94444 9.84115 8.97827 9.71309 9.04295 9.59993C9.10763 9.48677 9.20082 9.39264 9.31333 9.32684C9.42584 9.26104 9.55365 9.22593 9.68391 9.22499C9.81418 9.22406 9.9425 9.25735 10.0559 9.32153L13.5722 11.3436C14.0722 11.6325 14.0722 12.3546 13.5722 12.6435L10.0614 14.6766C9.56143 14.9655 8.94483 14.6044 8.94483 14.0267Z" fill="white"/>
</svg>

<svg xmlns="http://www.w3.org/2000/svg" width="24" height="24" fill="none" viewBox="0 0 24 24">
    <path fill="#fff" d="m9.5 2.1 10.744 6.333a.76.76 0 0 1 .366.644v5.866a.74.74 0 0 1-.366.645l-10.738 6.31a.72.72 0 0 1-.739 0l-5.016-3.022a.75.75 0 0 1-.361-.644V5.677c0-.266.139-.51.366-.644L8.773 2.1a.71.71 0 0 1 .727 0M6.167 4.31v15.35c0 .222.245.366.439.255l13.305-7.7a.294.294 0 0 0 0-.505L6.6 4.055a.289.289 0 0 0-.434.256"/>
    <path fill="#fff" d="M8.945 14.027V9.97a.744.744 0 0 1 1.11-.65l3.517 2.023a.75.75 0 0 1 0 1.3l-3.51 2.033a.744.744 0 0 1-1.117-.65"/>
</svg>
